Facilitet_punkt_5800_Piktogrammer/Cirkel/SVG/BIOGRAF.svg

<svg xmlns="http://www.w3.org/2000/svg" width="5.5mm" height="5.5mm" viewBox="0 0 15.591 15.591">
  <rect width="15.591" height="15.591" rx="7.795" fill="#031E3A"/>
  <path d="M12.761,4.44H2.555a.772.772,0,0,0-.772.772V10.2a.772.772,0,0,0,.772.772H4.1a.426.426,0,0,0,.062.013h6.988a.44.44,0,0,0,.063-.013h1.546a.772.772,0,0,0,.772-.772V5.212A.772.772,0,0,0,12.761,4.44ZM3.65,10.2H2.555V9.572H3.65Zm0-1.4H2.555V8.075H3.65Zm0-1.5H2.555V6.577H3.65Zm0-1.5H2.555V5.212H3.65ZM8.891,8l-.586.339-1.011.584-.587.338c-.278.161-.5.029-.5-.292V6.447c0-.321.227-.453.5-.292l.587.338,1.011.584.586.339A.308.308,0,0,1,8.891,8Zm3.87,2.2H11.667V9.572h1.094Zm0-1.4H11.667V8.075h1.094Zm0-1.5H11.667V6.577h1.094Zm0-1.5H11.667V5.212h1.094Z" fill="#fff"/>
</svg>

<?xml version="1.0" encoding="UTF-8"?>
<svg xmlns="http://www.w3.org/2000/svg" viewBox="0 0 15.59 15.59">
  <defs>
    <style>
      .cls-1 {
        fill: #021e3a;
      }

      .cls-1, .cls-2 {
        stroke-width: 0px;
      }

      .cls-2 {
        fill: #fff;
      }
    </style>
  </defs>
  <g id="Cirkel">
    <rect class="cls-1" x="0" y="0" width="15.59" height="15.59" rx="7.8" ry="7.8"/>
  </g>
  <g id="ICONS">
    <path class="cls-2" d="M12.76,4.44H2.56c-.43,0-.77.35-.77.77v4.99c0,.43.35.77.77.77h1.55s.04.01.06.01h6.99s.04,0,.06-.01h1.55c.43,0,.77-.35.77-.77v-4.99c0-.43-.35-.77-.77-.77ZM3.65,10.2h-1.09v-.63s0,0,0,0h1.09v.63ZM3.65,8.8h-1.09s0,0,0,0v-.73s0,0,0,0h1.09v.73ZM3.65,7.3h-1.09s0,0,0,0v-.73s0,0,0,0h1.09v.73ZM3.65,5.8h-1.09s0,0,0,0v-.59h1.09v.59ZM8.89,8l-.59.34c-.28.16-.73.42-1.01.58l-.59.34c-.28.16-.51.03-.51-.29v-2.52c0-.32.23-.45.51-.29l.59.34c.28.16.73.42,1.01.58l.59.34c.28.16.28.42,0,.58ZM12.76,10.2h-1.09v-.63h1.09v.63ZM12.76,8.8h-1.09v-.73h1.09v.73ZM12.76,7.3h-1.09v-.73h1.09v.73ZM12.76,5.8h-1.09v-.59h1.09v.59Z"/>
  </g>
</svg>
